X:1
T:9 Lieder und Gesänge, Op.32
T:Wie bist du, meine Königin
T:9. Wie bist du, meine Königin
T:Johannes Brahms
T:Georg Friedrich Daumer, nach Hafis
T:9 Lieder und Gesänge, Op.32
T:Creative Commons copyright waiver (CC0 1.0 Universal) 
T:Creative Commons copyright waiver (CC0 1.0 Universal) 
T:Creative Commons copyright waiver (CC0 1.0 Universal) 
T:Creative Commons copyright waiver (CC0 1.0 Universal) 
C:Johannes Brahms
Z:Georg Friedric Daumer, nach Hafis
Z:Creative Commons copyright waiver (CC0 1.0 Universal)
Z:
%%score 1 { ( 2 3 ) | ( 4 5 ) }
L:1/8
Q:1/4=35
M:3/8
K:Eb
V:1 treble nm="Singstimme\nVoice"
V:2 treble nm="Pianoforte"
V:3 treble 
V:4 bass 
V:5 bass 
V:1
"^Adagio" z3 | z3 | z3 | z3 | z3 | e d c | c3/2 B/ F/ G/ | A2 z | z/ F/ G A | B3/2 B/ c/ f/ | %10
w: |||||Wie bist du,|mei- ne Kö- ni-|gin,|durch  sanf- te|Gü- te won- ne-|
 (ed) z |!<(! _d B A | G3/2 e/ =d/ e/!<)! |!ff!!>(! f3/2 e/ d/ c/ | c2!>)!!mp! B | z3 | e2 c | %17
w: voll! *|Du läch- le|nur Lenz- düf- te|wehn durch mein Ge-|mü- te||won- ne-|
 G2 z | c2 D | E2 z | z3 | z3 | z3 | z3 | e d c | c3/2 B/ F/ G/ | A2 z | z/"^cresc." F/ G A | %28
w: voll,|won- ne-|voll!|||||Frisch auf ge-|blüh- ter Ro- sen|Glanz,|ver- gleich ich|
 B3/2 c/ f- | f/ e/ d z | _d B A | G3/2 e/ =d/ e/ |!ff!!>(! f3/2 e/ d/ c/!>)! | c2!mf! B | z3 | %35
w: ihn dem dei-|* ni- gen?|Ach, ü- ber|al- les was da|blüht, ist dei- ne|Blü- te,||
 e2 c | G2 z | c2 D | E2 z | z3 | z3 | z3 | z3 |!mp!"^cresc." E F _G | B3/2 A/ E/ F/ | _G2 z | %46
w: won- ne-|voll,|won- ne-|voll!|||||Durch to- te|Wüs- ten wand- le|hin,|
 ^F ^G =A | =B3/2 B/ ^c/ ^f/ | (=e^d) z |!f! =c =A =G | ^F3/2 F/ =A/ G/ | ^F2 _e- | e =d _A | %53
w: und grü- ne|Schat- ten brei- ten|sich, _|ob fürch- ter-|li- che Schwü- le|dort ohn|_ En- de|
 A2 _G | z3 |!mp! _f2 _d | B2 z | e2 =A | B2 =D | E2 z | z3 | z3 | z3 | z3 |!p! e d c | %65
w: brü- te,||won- ne-|voll,|won- ne-|won- ne-|voll.|||||Lass mich ver-|
 c3/2 B/ F/ G/ | A2 z | F G A | B3/2 B/ c/ f/ | (ed) z |!<(! _d B A | G3/2 e/ =d/ e/!<)! | %72
w: gehn in dei- nem|Arm!|Es ist in|ihm ja selbst der|Tod, _|ob auch die|herb- ste To- des-|
!f!!>(! _f3/2 e/ _d/ _c/ | _c!>)!!mp! B z | e2 B | G2 z | e2 G | c2 D | E2 z | z3 | z3 |] %81
w: qual die Brust durch-|wü- te,|won- ne-|voll,|won- ne-|won- ne-|voll!|||
V:2
 z2 z | (agf) | (bag) | (=bc'd) | e2 z | (e'd'c') | c'>bf/g/ | a>gd/e/ | (fga | b2 =a) | [Bfb]2 z | %11
 (g2 a) | (b2 g | a2 e) | =d2 z | e'2 b | g2 z | (e'bg) | (agf) | (edc) | (agf) | (bag) | (=bc'd) | %23
 e2 z | e'd'c' | c'>bf/g/ | a>gd/e/ | (fga | b2 =a) | [Bfb]2 z | (g2 a) | (b2 g | a2 e) | =d2 z | %34
 e'2 b | g2 z | (e'bg) | (agf) | (edc) | (agf) | (bag) | (=bc'd) | e2 z | (_G/B/F/A/E/G/ | %44
 _D/F/_C/E/A,/C/) | (E,/_G,/B,/E/F/(_G/) | (^F)^G=A) | [=B,=B]2 [=E^A^c] | [=B,^F=B]2 z | %49
 (=C/[^F=A][FA][=E=G]/) | (=C/[^F=A][FA][=E=G]/) | (=C/[^F=A][FA][FA]/) | (_C/[=F_A][FA][FA]/) | %53
 (_C/[FA][FA][E_G]/) | (A,/[E_G][EG][EG]/) | z/ ([_fb_f']/_d'/b/f/_d/) | %56
 z/ ([_fb_f']/_d'/b/_g/f/) | z/ ([e=ae']/a/_g/e/=A/) | z/ ([Beb]/=g/B/A/F/) | (edc) | (agf) | %61
 (bag) | (=bc'd) | e2 z | (e'd'c') | c'>bf/g/ | a>gd/e/ | fga | b2 =a | [Bfb]2 z | (g2 a) | (b2 g | %72
 a2 e) | =d2 z | [Geg]2 z | (e'2 c') | g2 z | (agf) | e2 z | [Geg]2 z | !fermata![egbe']3 |] %81
V:3
 (edc) | cB>d | f/B<de/ | d>c_B/A/ | G2 x | e3 | x3 | x3 | d2 d | fec | x3 | _d2 c | B3 | A2 A | %14
 A2 x | [eg]3 | e2 x | [eg]2 e | [Ad]2 [Ad] | G2 z | cB>d | f/B<de/ | d>c_B/A/ | G2 x | e3 | x3 | %26
 x3 | d2 d | (fec) | x3 | _d2 c | B3 | A2 A | A2 x | [eg]3 | e2 x | [eg]2 e | [Ad]2 [Ad] | G2 z | %39
 cB>d | f/B<de/ | d>c_B/A/ | G2 x | x3 | x3 | x3 | [=B,^D]2 [B,D] | (^F=E) x | x3 | (C =B,2) | %50
 (C =B,2) | (C =B,2) | (_C _B,2) | (_C B,2) | (A, _G,2) | x3 | x3 | x3 | x3 | G2 z | cB>d | %61
 f/B<de/ | d>c_B/A/ | G2 x | e3 | x3 | x3 | d2 d | (fec) | x3 | _d2 c | B3 | [A_f]2 A | A2 x | x3 | %75
 [eg]3 | [Ge]2 x | [Ad]2 A | G2 x | x3 | x3 |] %81
V:4
!p!"^molto espress. e dolce" z/!ped! (E,,/B,,/E,/G,/B,/)!ped-up! | z/ (F,,/B,,/D,/A,/B,/) | %2
!<(! z/ (G,,/B,,/E,/G,/B,/)!<)! |!mf! z/ (A,,/E,/A,/[B,,F,]/B,/) | (E,,/B,,/E,/G,/B,/E/ | %5
[K:treble] G/)G,/B,/E/G/B/ | d2 c | B2 A | AGF |[K:bass] FEE | (B,,/F,/B,/D/F/[I:staff -1]B/) | %11
!<(![I:staff +1] (E,,/B,,/E,/G,/B,/E/) | z/ (_D,/E,/G,/B,/E/)!<)! | z/ (C,/E,/A,/!>(!A,,/C/) | %14
 (B,,/F,/B,/!>)!D/F/A/) | z/ (B,,,/B,,/E,/G,/B,/) | z/ (=A,,/E,/G,/C/E/) | z/ (B,,/E,/G,/B,/E/) | %18
 (B,,,/B,,/F,/A,/B,/D/) |!p! z/"^espress." (E,,/B,,/E,/G,/B,/) | z/ (F,,/B,,/D,/A,/B,/) | %21
!<(! z/ (G,,/B,,/E,/G,/B,/)!<)! |!mf!!>(! z/ (A,,/E,/A,/[B,,F,]/B,/) | %23
 (E,,/!>)!!p!B,,/E,/G,/B,/E/ |[K:treble]"^espress." G/)(G,/B,/E/G/B/ | d2) c | B2 A |!<(! AGF | %28
[K:bass] FEE!<)! | (B,,/F,/B,/D/F/[I:staff -1]B/) |!<(![I:staff +1] (E,,/B,,/E,/G,/B,/E/) | %31
 z/ (_D,/E,/G,/B,/E/)!<)! |!ff! z/ (C,/E,/A,/!>(!A,,/C/) | (B,,/F,/B,/!>)!!mf!D/F/A/) | %34
 z/ (B,,,/B,,/E,/G,/B,/) | z/ (=A,,/E,/G,/C/E/) | z/ (B,,/E,/G,/B,/E/) | (B,,,/B,,/F,/A,/B,/D/) | %38
!p! z/"^espress." (E,,/B,,/E,/G,/B,/) |!<(! z/ (F,,/B,,/D,/A,/B,/) | z/ (G,,/B,,/E,/G,/!<)!B,/) | %41
!f! z/ (A,,/!>(!E,/A,/[B,,F,]/B,/) | (E,,/!>)!!mp!B,,/E,/G,/B,/[I:staff -1]E/) | %43
!p![I:staff +1] (_G,/B,/F,/A,/E,/G,/ | _D,/F,/_C,/E,/A,,/C,/) | (E,,/_G,,/B,,/E,/F,/_G,/) | %46
 =A,/=B,,/!<(!^G,/B,,/^F,/B,,/ | ^G,/=B,,/G,/B,,/!<)!^F,/^C,/ | %48
!<(! (=B,,,/^F,,/=B,,/^D,/^F,/[I:staff -1]=B,/)!<)! |!>(![I:staff +1] (=C, =B,,2)!>)! | %50
!>(! (=C, =B,,2)!>)! |!>(! (=C, =B,,2)!>)! |!>(! (_C, _B,,2)!>)! |!>(! (_C,"^dim." B,,2)!>)! | %54
!>(! ([A,,,A,,] [_G,,,_G,,]2)!>)! | (_G,,,/!>(!_G,,/B,,/_D,/_G,/!>)!!pp!B,/) | %56
!p! (_C,,/!>(!_G,,/B,,/_D,/_G,/!>)!!pp!B,/) |!p! (_C,,/!>(!_G,,/_C,/E,/_G,/!>)!!pp!_C/) | %58
!p! (B,,,/!>(!B,,/E,/G,/[B,,F,]/!>)!!pp!B,/) |!p! z/"^espress." (E,,/B,,/E,/G,/B,/) | %60
 z/ (F,,/B,,/D,/A,/B,/) |!<(! z/ (G,,/B,,/E,/G,/B,/)!<)! |!mf!!>(! z/ (A,,/E,/A,/[B,,F,]/B,/) | %63
 (E,,/!>)!!p!B,,/E,/G,/B,/E/ |[K:treble]"^espress." G/)(G,/B,/E/G/B/ | d2) c | B2 A | AGF | %68
[K:bass] FEE/C/ | (B,,/F,/B,/D/F/[I:staff -1]B/) |!<(![I:staff +1] (E,,/B,,/E,/G,/B,/E/) | %71
 z/ (_D,/E,/G,/B,/E/)!<)! |!f! z/ (_C,/E,/A,/!>(!_C/A,,/) | (B,,/F,/A,/!>)!!mp!B,/D/F/) | %74
 (B,,,/B,,/E,/G,/B,/E/) | z/ (=A,,/E,/G,/C/E/) | z/ (B,,,/B,,/E,/G,/B,/) | (B,,,/B,,/F,/A,/B,/D/) | %78
 z/ (E,,/B,,/E,/G,/B,/) | z/!ped! ([E,,B,,]/E,/G,/B,/E/-)!ped-up! | !fermata![G,B,EG]3 |] %81
V:5
 x3 | x3 | x3 | x3 | x3 |[K:treble] x3 | (F/A/F/A/E/A/) | (D/F/D/F/C/F/) | (B,/D/B,/D/A,/D/) | %9
[K:bass] (G,/B,/G,/B,/F,/C/) | x3 | x3 | x3 | x3 | x3 | x3 | x3 | x3 | x3 | x3 | x3 | x3 | x3 | %23
 x3 |[K:treble] x3 | (F/A/F/A/E/A/) | (D/F/D/F/C/F/) | (B,/D/B,/D/A,/D/) | %28
[K:bass] (G,/B,/G,/B,/F,/!mf!C/) | x3 | x3 | x3 | x3 | x3 | x3 | x3 | x3 | x3 | x3 | x3 | x3 | x3 | %42
 x3 | x3 | x3 | x3 | (=A,,^G,,^F,,) | ^G,,2 ^F,, | x3 | =B,,,3 | =B,,,3 | =B,,,3 | _B,,,3 | B,,,3 | %54
 x3 | x3 | x3 | x3 | x3 | x3 | x3 | x3 | x3 | x3 |[K:treble] x3 | (F/A/F/A/E/A/) | (D/F/D/F/C/F/) | %67
 (B,/D/B,/D/A,/D/) |[K:bass] G,/B,/_G,/B,/F, | x3 | x3 | x3 | x3 | x3 | x3 | x3 | x3 | x3 | x3 | %79
 x3 | x3 |] %81

